frontend/src/assets/customize.svg

<svg width="56" height="55" viewBox="0 0 56 55" fill="none" xmlns="http://www.w3.org/2000/svg">
<path d="M9.43727 35.7917C4.22521 30.7291 4.09077 22.6515 9.13699 17.75L18.274 8.875C23.3202 3.97347 31.6362 4.10406 36.8482 9.16667L46.2855 18.3333C51.4976 23.3959 51.632 31.4735 46.5858 36.375L37.4488 45.25C32.4026 50.1515 24.0866 50.0209 18.8745 44.9583L9.43727 35.7917Z" fill="#FEDFB1"/>
<path d="M12.1827 34.3333C7.72872 30.2832 7.72872 23.7168 12.1827 19.6667L20.2472 12.3333C24.7012 8.28325 31.9224 8.28325 36.3764 12.3333L44.441 19.6667C48.8949 23.7168 48.8949 30.2833 44.441 34.3333L36.3764 41.6667C31.9224 45.7168 24.7012 45.7168 20.2472 41.6667L12.1827 34.3333Z" fill="#FEDFB1"/>
<path d="M22.9926 26.4167C22.8225 26.4167 22.6799 26.3607 22.565 26.2487C22.4497 26.1371 22.3921 25.9986 22.3921 25.8333V22.3333C22.3921 22.1681 22.4497 22.0294 22.565 21.9174C22.6799 21.8058 22.8225 21.75 22.9926 21.75H26.5959C26.7661 21.75 26.9088 21.8058 27.0241 21.9174C27.139 22.0294 27.1965 22.1681 27.1965 22.3333V25.8333C27.1965 25.9986 27.139 26.1371 27.0241 26.2487C26.9088 26.3607 26.7661 26.4167 26.5959 26.4167H22.9926ZM23.5932 22.9167V25.25V22.9167ZM28.9982 26.4167C28.828 26.4167 28.6855 26.3607 28.5706 26.2487C28.4553 26.1371 28.3976 25.9986 28.3976 25.8333V22.3333C28.3976 22.1681 28.4553 22.0294 28.5706 21.9174C28.6855 21.8058 28.828 21.75 28.9982 21.75H32.6015C32.7716 21.75 32.9142 21.8058 33.0291 21.9174C33.1444 22.0294 33.202 22.1681 33.202 22.3333V25.8333C33.202 25.9986 33.1444 26.1371 33.0291 26.2487C32.9142 26.3607 32.7716 26.4167 32.6015 26.4167H28.9982ZM29.5987 22.9167V25.25V22.9167ZM22.9926 32.25C22.8225 32.25 22.6799 32.194 22.565 32.082C22.4497 31.9704 22.3921 31.8319 22.3921 31.6667V28.1667C22.3921 28.0014 22.4497 27.8627 22.565 27.7507C22.6799 27.6391 22.8225 27.5833 22.9926 27.5833H26.5959C26.7661 27.5833 26.9088 27.6391 27.0241 27.7507C27.139 27.8627 27.1965 28.0014 27.1965 28.1667V31.6667C27.1965 31.8319 27.139 31.9704 27.0241 32.082C26.9088 32.194 26.7661 32.25 26.5959 32.25H22.9926ZM23.5932 28.75V31.0833V28.75ZM30.7998 32.25C30.6297 32.25 30.4871 32.194 30.3722 32.082C30.2569 31.9704 30.1993 31.8319 30.1993 31.6667V30.5H28.9831C28.813 30.5 28.6729 30.444 28.5628 30.332C28.4527 30.2204 28.3976 30.0819 28.3976 29.9167C28.3976 29.7514 28.4553 29.6129 28.5706 29.5013C28.6855 29.3893 28.828 29.3333 28.9982 29.3333H30.1993V28.1521C30.1993 27.9868 30.2569 27.8507 30.3722 27.7437C30.4871 27.6368 30.6297 27.5833 30.7998 27.5833C30.97 27.5833 31.1125 27.6391 31.2274 27.7507C31.3427 27.8627 31.4004 28.0014 31.4004 28.1667V29.3333H32.6165C32.7867 29.3333 32.9268 29.3893 33.0369 29.5013C33.147 29.6129 33.202 29.7514 33.202 29.9167C33.202 30.0819 33.1444 30.2204 33.0291 30.332C32.9142 30.444 32.7716 30.5 32.6015 30.5H31.4004V31.6812C31.4004 31.8465 31.3427 31.9826 31.2274 32.0896C31.1125 32.1965 30.97 32.25 30.7998 32.25ZM29.5987 22.9167V25.25H32.0009V22.9167H29.5987ZM23.5932 22.9167V25.25H25.9954V22.9167H23.5932ZM23.5932 28.75V31.0833H25.9954V28.75H23.5932Z" fill="#01244C"/>
</svg>

<svg xmlns="http://www.w3.org/2000/svg" width="56" height="55" fill="none" xmlns:v="https://vecta.io/nano"><g fill="#fedfb1"><path d="M9.437 35.792c-5.212-5.063-5.346-13.14-.3-18.042l9.137-8.875c5.046-4.902 13.362-4.771 18.574.292l9.437 9.167c5.212 5.063 5.346 13.14.3 18.042l-9.137 8.875c-5.046 4.901-13.362 4.771-18.574-.292l-9.437-9.167z"/><path d="M12.183 34.333c-4.454-4.05-4.454-10.617 0-14.667l8.064-7.333c4.454-4.05 11.675-4.05 16.129 0l8.065 7.333c4.454 4.05 4.454 10.617 0 14.667l-8.065 7.333c-4.454 4.05-11.675 4.05-16.129 0l-8.064-7.333z"/></g><path d="M22.993 26.417a.59.59 0 0 1-.428-.168c-.115-.112-.173-.25-.173-.415v-3.5c0-.165.058-.304.173-.416a.59.59 0 0 1 .428-.167h3.603a.59.59 0 0 1 .428.167c.115.112.172.251.172.416v3.5c0 .165-.058.304-.172.415a.59.59 0 0 1-.428.168h-3.603zm.601-3.5v2.333-2.333zm5.405 3.5a.59.59 0 0 1-.428-.168c-.115-.112-.173-.25-.173-.415v-3.5c0-.165.058-.304.173-.416a.59.59 0 0 1 .428-.167h3.603a.59.59 0 0 1 .428.167c.115.112.173.251.173.416v3.5c0 .165-.058.304-.173.415a.59.59 0 0 1-.428.168h-3.603zm.601-3.5v2.333-2.333zm-6.606 9.333a.59.59 0 0 1-.428-.168c-.115-.112-.173-.25-.173-.415v-3.5c0-.165.058-.304.173-.416a.59.59 0 0 1 .428-.167h3.603a.59.59 0 0 1 .428.167c.115.112.172.251.172.416v3.5c0 .165-.058.304-.172.415a.59.59 0 0 1-.428.168h-3.603zm.601-3.5v2.333-2.333zm7.207 3.5a.59.59 0 0 1-.428-.168c-.115-.112-.173-.25-.173-.415V30.5h-1.216c-.17 0-.31-.056-.42-.168s-.165-.25-.165-.415.058-.304.173-.415a.59.59 0 0 1 .428-.168h1.201v-1.181c0-.165.058-.301.173-.408s.258-.16.428-.16a.59.59 0 0 1 .428.167c.115.112.173.251.173.416v1.167h1.216c.17 0 .31.056.42.168s.165.25.165.415-.058.304-.173.415a.59.59 0 0 1-.428.168H31.4v1.181c0 .165-.058.301-.173.408s-.257.16-.428.16zm-1.201-9.333v2.333h2.402v-2.333h-2.402zm-6.006 0v2.333h2.402v-2.333h-2.402zm0 5.833v2.333h2.402V28.75h-2.402z" fill="#01244c"/></svg>
